src/images/svg/symbols/neo_flag.svg

<svg width="32" height="32" viewBox="0 0 32 32" fill="none" xmlns="http://www.w3.org/2000/svg">
<path d="M0 16C0 7.16344 7.16344 0 16 0C24.8366 0 32 7.16344 32 16C32 24.8366 24.8366 32 16 32C7.16344 32 0 24.8366 0 16Z" fill="#00E599"/>
<path d="M8.76855 21.5062V10.8047L16.4114 8L23.2292 10.4418L15.7166 13.2097V24L8.76855 21.5062Z" fill="white"/>
<path d="M16.2816 19.372V13.5178L23.2283 10.9492L23.2314 21.8614L16.2816 19.372Z" fill="white"/>
</svg>

<svg width="32" height="32" fill="none" xmlns="http://www.w3.org/2000/svg"><path d="M0 16C0 7.163 7.163 0 16 0s16 7.163 16 16-7.163 16-16 16S0 24.837 0 16Z" fill="#00E599"/><path d="M8.769 21.506V10.805L16.41 8l6.818 2.442-7.512 2.768V24l-6.948-2.494Z" fill="#fff"/><path d="M16.282 19.372v-5.854l6.946-2.569.003 10.912-6.95-2.489Z" fill="#fff"/></svg>
